svg/color/dtube.svg

<?xml version="1.0" encoding="UTF-8" ?>
<!DOCTYPE svg PUBLIC "-//W3C//DTD SVG 1.1//EN" "http://www.w3.org/Graphics/SVG/1.1/DTD/svg11.dtd">
<svg width="250pt" height="250pt" viewBox="0 0 250 250" version="1.1" xmlns="http://www.w3.org/2000/svg">
<g id="#ffffffff">
<path fill="#ffffff" opacity="1.00" d=" M 0.00 0.00 L 250.00 0.00 L 250.00 250.00 L 0.00 250.00 L 0.00 0.00 M 10.41 27.37 C 10.59 92.64 10.27 157.91 10.57 223.18 C 36.05 223.12 61.53 223.20 87.00 223.15 C 92.66 222.44 98.36 222.68 104.04 222.35 C 112.60 221.16 121.25 219.88 129.31 216.64 C 147.19 210.36 162.52 197.33 171.67 180.75 C 183.09 160.52 186.06 136.54 184.14 113.67 C 182.43 94.87 176.43 76.16 165.12 60.89 C 148.87 38.82 121.22 26.35 94.00 27.36 C 66.14 27.36 38.27 27.36 10.41 27.37 M 206.26 167.87 C 194.52 169.86 184.60 180.87 185.10 192.98 C 184.66 199.89 187.79 206.59 192.50 211.50 C 202.17 221.35 219.90 221.48 229.54 211.53 C 234.62 206.81 237.12 199.83 237.42 193.02 C 237.04 186.71 234.79 180.29 230.30 175.70 C 224.33 169.19 214.90 166.29 206.26 167.87 Z" />
<path fill="#ffffff" opacity="1.00" d=" M 59.74 81.66 C 65.74 84.29 71.18 88.00 76.90 91.16 C 96.22 102.49 115.79 113.42 134.97 124.99 C 112.83 138.29 90.27 150.90 68.02 164.00 C 65.33 165.59 62.57 167.05 59.73 168.33 C 59.66 139.44 59.64 110.55 59.74 81.66 Z" />
</g>
<g id="#223154ff">
<path fill="#223154" opacity="1.00" d=" M 10.41 27.37 C 38.27 27.36 66.14 27.36 94.00 27.36 C 121.22 26.35 148.87 38.82 165.12 60.89 C 176.43 76.16 182.43 94.87 184.14 113.67 C 186.06 136.54 183.09 160.52 171.67 180.75 C 162.52 197.33 147.19 210.36 129.31 216.64 C 121.25 219.88 112.60 221.16 104.04 222.35 C 98.36 222.68 92.66 222.44 87.00 223.15 C 61.53 223.20 36.05 223.12 10.57 223.18 C 10.27 157.91 10.59 92.64 10.41 27.37 M 59.74 81.66 C 59.64 110.55 59.66 139.44 59.73 168.33 C 62.57 167.05 65.33 165.59 68.02 164.00 C 90.27 150.90 112.83 138.29 134.97 124.99 C 115.79 113.42 96.22 102.49 76.90 91.16 C 71.18 88.00 65.74 84.29 59.74 81.66 Z" />
</g>
<g id="#f01a30ff">
<path fill="#f01a30" opacity="1.00" d=" M 206.26 167.87 C 214.90 166.29 224.33 169.19 230.30 175.70 C 234.79 180.29 237.04 186.71 237.42 193.02 C 237.12 199.83 234.62 206.81 229.54 211.53 C 219.90 221.48 202.17 221.35 192.50 211.50 C 187.79 206.59 184.66 199.89 185.10 192.98 C 184.60 180.87 194.52 169.86 206.26 167.87 Z" />
</g>
</svg>

<?xml version="1.0" encoding="utf-8"?>
<!-- Generator: Adobe Illustrator 26.0.3, SVG Export Plug-In . SVG Version: 6.00 Build 0)  -->
<svg version="1.1" id="Layer_1" xmlns="http://www.w3.org/2000/svg" xmlns:xlink="http://www.w3.org/1999/xlink" x="0px" y="0px"
	 viewBox="0 0 250 250" style="enable-background:new 0 0 250 250;" xml:space="preserve">
<style type="text/css">
	.st0{fill:#FFFFFF;}
	.st1{fill:#223154;}
	.st2{fill:#F01A30;}
</style>
<g id="_x23_ffffffff">
	<path class="st0" d="M59.7,81.7c6,2.6,11.4,6.3,17.2,9.5c19.3,11.3,38.9,22.3,58.1,33.8c-22.1,13.3-44.7,25.9-67,39
		c-2.7,1.6-5.4,3.1-8.3,4.3C59.7,139.4,59.6,110.6,59.7,81.7z"/>
</g>
<g id="_x23_223154ff">
	<path class="st1" d="M10.4,27.4c27.9,0,55.7,0,83.6,0c27.2-1,54.9,11.5,71.1,33.5c11.3,15.3,17.3,34,19,52.8
		c1.9,22.9-1.1,46.9-12.5,67.1c-9.1,16.6-24.5,29.6-42.4,35.9c-8.1,3.2-16.7,4.5-25.3,5.7c-5.7,0.3-11.4,0.1-17,0.8
		c-25.5,0.1-51,0-76.4,0C10.3,157.9,10.6,92.6,10.4,27.4 M59.7,81.7c-0.1,28.9-0.1,57.8,0,86.7c2.8-1.3,5.6-2.7,8.3-4.3
		c22.2-13.1,44.8-25.7,67-39c-19.2-11.6-38.8-22.5-58.1-33.8C71.2,88,65.7,84.3,59.7,81.7z"/>
</g>
<g id="_x23_f01a30ff">
	<path class="st2" d="M206.3,167.9c8.6-1.6,18.1,1.3,24,7.8c4.5,4.6,6.7,11,7.1,17.3c-0.3,6.8-2.8,13.8-7.9,18.5
		c-9.6,9.9-27.4,9.8-37,0c-4.7-4.9-7.8-11.6-7.4-18.5C184.6,180.9,194.5,169.9,206.3,167.9z"/>
</g>
</svg>
